images/icon-check.svg

<svg width="15" height="15" viewBox="0 0 15 15" fill="none" xmlns="http://www.w3.org/2000/svg">
<path d="M2.95703 7.75166L2.88825 7.68604L2.81923 7.75141L1.93123 8.59258L1.85486 8.66492L1.93097 8.73753L5.42671 12.0724L5.49574 12.1382L5.56476 12.0724L13.069 4.91352L13.1449 4.84116L13.069 4.76881L12.1873 3.92764L12.1183 3.86183L12.0493 3.92761L5.49577 10.1735L2.95703 7.75166Z" fill="white" stroke="white" stroke-width="0.2"/>
</svg>

<svg width="15" height="15" fill="none" xmlns="http://www.w3.org/2000/svg"><path d="m2.96 7.75-.07-.06-.07.06-.89.84-.08.07.08.08 3.5 3.33.07.07.06-.07 7.5-7.16.08-.07-.07-.07-.88-.84-.07-.07-.07.07-6.55 6.24-2.54-2.42Z" fill="#fff" stroke="#fff" stroke-width=".2"/></svg>
